images/gtk3/radio-mixed-insensitive.svg

<svg id="svg6" viewBox="0 0 16 16" xmlns="http://www.w3.org/2000/svg">
  <path id="base_color" d="m16 8a8 8 0 0 1-8 8 8 8 0 0 1-8-8 8 8 0 0 1  8-8 8 8 0 0 1  8 8z" fill="#161616"/>
  <path id="check_color" d="m8 0c-4.4057419.00000011-8.00000011 3.5942548-8 8-.00000011 4.405746 3.5942581 8.001953 8 8.001953 4.405741 0 8-3.596207 8-8.001953 0-4.4057452-3.594259-8-8-8zm0 2.1171875c3.261853 0 5.882812 2.6209577 5.882812 5.8828125 0 3.261855-2.620959 5.884766-5.882812 5.884766-3.2618527 0-5.8828126-2.622911-5.8828125-5.884766-.0000001-3.2618548 2.6209598-5.8828124 5.8828125-5.8828125zm-4 4.8828125v2h8v-2z" fill="#404040" overflow="visible"/>
</svg>

<?xml version="1.0" encoding="UTF-8" standalone="no"?>
<svg
   xmlns:dc="http://purl.org/dc/elements/1.1/"
   xmlns:cc="http://creativecommons.org/ns#"
   xmlns:rdf="http://www.w3.org/1999/02/22-rdf-syntax-ns#"
   xmlns:svg="http://www.w3.org/2000/svg"
   xmlns="http://www.w3.org/2000/svg"
   xmlns:sodipodi="http://sodipodi.sourceforge.net/DTD/sodipodi-0.dtd"
   xmlns:inkscape="http://www.inkscape.org/namespaces/inkscape"
   viewBox="0 0 16 16"
   version="1.1"
   id="svg6"
   sodipodi:docname="radio-mixed-insensitive.svg"
   inkscape:version="0.92.2 5c3e80d, 2017-08-06">
  <metadata
     id="metadata12">
    <rdf:RDF>
      <cc:Work
         rdf:about="">
        <dc:format>image/svg+xml</dc:format>
        <dc:type
           rdf:resource="http://purl.org/dc/dcmitype/StillImage" />
        <dc:title></dc:title>
      </cc:Work>
    </rdf:RDF>
  </metadata>
  <defs
     id="defs10" />
  <sodipodi:namedview
     pagecolor="#ffffff"
     bordercolor="#666666"
     borderopacity="1"
     objecttolerance="10"
     gridtolerance="10"
     guidetolerance="10"
     inkscape:pageopacity="0"
     inkscape:pageshadow="2"
     inkscape:window-width="1912"
     inkscape:window-height="1036"
     id="namedview8"
     showgrid="false"
     inkscape:zoom="41.7193"
     inkscape:cx="8.8766277"
     inkscape:cy="7.5147186"
     inkscape:window-x="0"
     inkscape:window-y="0"
     inkscape:window-maximized="1"
     inkscape:current-layer="svg6" />
  <path
     style="fill:#161616;fill-opacity:1;stroke:none;stroke-width:4.22473907;stroke-opacity:1"
     d="M 16,8 A 8,8 0 0 1 8,16 8,8 0 0 1 0,8 8,8 0 0 1 8,0 8,8 0 0 1 16,8 Z"
     id="base_color"
     inkscape:connector-curvature="0" />
  <path
     style="color:#000000;font-style:normal;font-variant:normal;font-weight:normal;font-stretch:normal;font-size:medium;line-height:normal;font-family:sans-serif;font-variant-ligatures:normal;font-variant-position:normal;font-variant-caps:normal;font-variant-numeric:normal;font-variant-alternates:normal;font-feature-settings:normal;text-indent:0;text-align:start;text-decoration:none;text-decoration-line:none;text-decoration-style:solid;text-decoration-color:#000000;letter-spacing:normal;word-spacing:normal;text-transform:none;writing-mode:lr-tb;direction:ltr;text-orientation:mixed;dominant-baseline:auto;baseline-shift:baseline;text-anchor:start;white-space:normal;shape-padding:0;clip-rule:nonzero;display:inline;overflow:visible;visibility:visible;opacity:1;isolation:auto;mix-blend-mode:normal;color-interpolation:sRGB;color-interpolation-filters:linearRGB;solid-color:#000000;solid-opacity:1;vector-effect:none;fill:#404040;fill-opacity:1;fill-rule:nonzero;stroke:none;stroke-width:2.11659193;stroke-linecap:square;stroke-linejoin:bevel;stroke-miterlimit:4;stroke-dasharray:none;stroke-dashoffset:0;stroke-opacity:1;color-rendering:auto;image-rendering:auto;shape-rendering:auto;text-rendering:auto;enable-background:accumulate"
     d="M 8 0 C 3.5942581 1.0582e-07 -1.0582e-07 3.5942548 0 8 C -1.0582e-07 12.405746 3.5942581 16.001953 8 16.001953 C 12.405741 16.001953 16 12.405746 16 8 C 16 3.5942548 12.405741 0 8 0 z M 8 2.1171875 C 11.261853 2.1171875 13.882812 4.7381452 13.882812 8 C 13.882812 11.261855 11.261853 13.884766 8 13.884766 C 4.7381473 13.884766 2.1171874 11.261855 2.1171875 8 C 2.1171874 4.7381452 4.7381473 2.1171876 8 2.1171875 z M 4 7 L 4 9 L 12 9 L 12 7 L 4 7 z "
     id="check_color" />
</svg>
